svg/cup_water.svg

<svg xmlns="http://www.w3.org/2000/svg" viewBox="0 0 24 24"><path d="M18.32 8H5.67l-.44-4h13.54M12 19a3 3 0 0 1-3-3c0-2 3-5.4 3-5.4s3 3.4 3 5.4a3 3 0 0 1-3 3M3 2l2 18.23c.13 1 .97 1.77 2 1.77h10c1 0 1.87-.77 2-1.77L21 2z"/></svg>

<?xml version="1.0" encoding="UTF-8"?><!DOCTYPE svg PUBLIC "-//W3C//DTD SVG 1.1//EN" "http://www.w3.org/Graphics/SVG/1.1/DTD/svg11.dtd"><svg xmlns="http://www.w3.org/2000/svg" xmlns:xlink="http://www.w3.org/1999/xlink" version="1.1" id="mdi-cup-water" width="24" height="24" viewBox="0 0 24 24"><path d="M18.32,8H5.67L5.23,4H18.77M12,19A3,3 0 0,1 9,16C9,14 12,10.6 12,10.6C12,10.6 15,14 15,16A3,3 0 0,1 12,19M3,2L5,20.23C5.13,21.23 5.97,22 7,22H17C18,22 18.87,21.23 19,20.23L21,2H3Z" /></svg>
